X:1
T:Title
%%score { ( 1 4 ) | ( 2 3 ) }
L:1/8
M:4/4
K:D
V:1 treble nm="Grand Piano"
V:4 treble 
V:2 bass 
V:3 bass 
V:1
 z4 z2[Q:1/4=100] [FA]>[EG] | [DF]2 [FA]2 [GB]2 [Gd]2 |[M:3/4] [DFA]4 [A,DF]2 | %3
[M:1/4] [A,FA]>[A,EG] |[M:4/4] [A,DF]2 [A,DF]2 [A,CE]2 [A,D]2 |[M:3/4] [G,CE]4 [G,CE]2 | %6
[M:1/4] [A,FA]>[A,EG] |[M:4/4] [A,DF]2 [A,FA]2 [DGB]2 [Gd]2 |[M:3/4] [FA]4 [DF]2 | %9
[M:1/4] [EA]>[EB] |[M:4/4] [Gc]2 [Gc]2 [Fd]2 ^G2 |[M:3/4] B4 z2 |[M:1/4] [Ec]>[^Gd] | %13
[M:4/4] [Ae]2 [Ac]2 [EA]2 [CG]2 |[M:3/4] [DF]3 [EG] [FA]2 |[M:1/4] [FA]>[Fd] | %16
[M:4/4] [Gc]2 [Gc]2 [GB]2 A2 |[M:3/4] [FA]4 [Fd]2 |[M:1/4] [Ec]>[^Gd] | %19
[M:4/4] [Ae]2 [Ac]2 [EA]2 [CG]2 |[M:3/4] [DF]3 G [A,FA]2 |[M:1/4] [A,DF]>[A,EG] | %22
[M:4/4] [A,FA]2 [A,FA]2 [A,CG]2[K:bass] [A,CE]2 |[M:3/4] [G,CE]4 [F,D]2 |] %24
V:2
 z4 z2 [D,A,]>[D,A,] | [D,A,]2 [D,A,]2 [D,D]2 [D,B,]2 |[M:3/4] D,4 D,2 |[M:1/4] D,>D, | %4
[M:4/4] D,2 D,2 G,2 F,2 |[M:3/4] z2 z F A,,2 |[M:1/4] D,>D, |[M:4/4] D,2 D,2 D,2 [D,B,]2 | %8
[M:3/4] [D,D]4 [D,A,]2 |[M:1/4] [C,A,]>[C,A,] |[M:4/4] [A,,A,]2 [A,,A,]2 [A,,A,]2 [E,B,D]2 | %11
[M:3/4] E2 z2 [A,,A,]2 |[M:1/4] [A,,A,]>[B,,E,] |[M:4/4] [C,A,]2 [A,,A,]2 [C,A,]2 [A,,A,]2 | %14
[M:3/4] [D,A,]4 [D,A,]2 |[M:1/4] [D,A,]>[D,A,] |[M:4/4] [E,A,]2 [E,A,]2 [A,,A,]2 [A,,A,]2 | %17
[M:3/4] [D,A,]4 [D,A,]2 |[M:1/4] [A,,A,]>[B,,E,] |[M:4/4] [C,A,]2 [A,,A,]2 [C,A,]2 [A,,A,]2 | %20
[M:3/4] z2 z E D,2 |[M:1/4] D,>D, |[M:4/4] D,2 D,2 A,,2 A,,2 |[M:3/4] A,,4 D,2 |] %24
V:3
 x8 | x8 |[M:3/4] x6 |[M:1/4] x2 |[M:4/4] x8 |[M:3/4] A,,4 z2 |[M:1/4] x2 |[M:4/4] x8 |[M:3/4] x6 | %9
[M:1/4] x2 |[M:4/4] x8 |[M:3/4] [E,^G,]4 z2 |[M:1/4] x2 |[M:4/4] x8 |[M:3/4] x6 |[M:1/4] x2 | %16
[M:4/4] x8 |[M:3/4] x6 |[M:1/4] x2 |[M:4/4] x8 |[M:3/4] [D,A,]4 z2 |[M:1/4] x2 |[M:4/4] x8 | %23
[M:3/4] x6 |] %24
V:4
 x8 | x8 |[M:3/4] x6 |[M:1/4] x2 |[M:4/4] x8 |[M:3/4] x6 |[M:1/4] x2 |[M:4/4] x8 |[M:3/4] x6 | %9
[M:1/4] x2 |[M:4/4] x8 |[M:3/4] z2 D2 [CA]2 |[M:1/4] x2 |[M:4/4] x8 |[M:3/4] x6 |[M:1/4] x2 | %16
[M:4/4] x8 |[M:3/4] x6 |[M:1/4] x2 |[M:4/4] x8 |[M:3/4] x6 |[M:1/4] x2 |[M:4/4] x6[K:bass] x2 | %23
[M:3/4] x6 |] %24

